X:1
T:While the Years Are Rolling By
T:While the Years Are Rolling By
T:Peter Philip Bilhorn
T:Peter Philip Bilhorn, 1889
T:Public Domain Courtesy of the Cyber Hymnal™
T:Public Domain Courtesy of the Cyber Hymnal™
C:Peter Philip Bilhorn
Z:Public Domain
Z:Courtesy of the Cyber Hymnal™
%%score ( 1 2 ) ( 3 4 )
L:1/8
Q:1/4=93
M:2/4
K:Eb
V:1 treble 
V:2 treble 
V:3 bass 
V:4 bass 
V:1
 [GB]>[FA] | [EG]>[EG] [EG]>[EG] | [EG]2 [DF]>E | [EG]2 [DF]2 | !fermata![B,E]2 [B,E]>[_DE] | %5
w: 1.~There is|work that we can|do, While the|years roll|by; For the|
w: 2.~List- en|to the Mas- ter’s|call, While the|years roll|by; Ho! ye|
w: 3.~It may|be your joy to|win, While the|years roll|by; Some- one|
 [CA]>[CA] [CA]>[CA] | [Ec]2 [Ec]>[Ec] | [EB]2 [EG]2 | !fermata![DF]2 [DB]>[FA] | %9
w: la- borers are but|few, While the|years roll|by; Let us|
w: reap- ers, one and|all, While the|years roll|by; Do not|
w: from the path of|sin, While the|years roll|by; To your|
 [EG]>[EG] [EG]>[EG] | [EG]2 [DF]>E | [EA]2 [EB]2 | [Ec]2 [Ec]>[Ec] | [EB]3 [B,E] | [EG]2 [DF]2 | %15
w: work and watch and|pray, Till the|crown- ing|day, While the|years are|roll- ing|
w: id- ly wait- ing|stand, Heed the|Lord’s com-|mand, While the|years are|roll- ing|
w: trust be firm and|true, God de-|pends on|you, While the|years are|roll- ing|
 E4- | E2 ||[M:4/4]"^Refrain" [B,E]>[EG] | B4- [GB]>[GB] [Ac]>[GB] | e6 [Ge]>[Bd] | %20
w: by.|||||
w: by.||While the|years are roll- ing by,|* While the|
w: by.|||||
 c4- [Ac]>[ce] (3([df][ce])[Ac] | B6 [GB]>[GB] | [Ge]2 [Ad]2 [Be]2 [GB]2 | %23
w: |||
w: years are roll- ing * by,|* There is|work that we can|
w: |||
 ([Bd]2 [Ac]4) [Ac]>[^Fc] | [GB]3 [B,E] [EG]2 F2 | E6 |] %26
w: |||
w: do, * While the|years are roll- ing|by.|
w: |||
V:2
 x2 | x4 | x7/2 E/ | x4 | x4 | x4 | x4 | x4 | x4 | x4 | x7/2 E/ | x4 | x4 | x4 | x4 | E4- | E2 || %17
[M:4/4] x2 | G2 G3/2 G/ x4 | (G2 G>G G2) x2 | A2 A3/2 A/ x4 | (G2 G>G G2) x2 | x8 | x8 | x6 (DB,) | %25
 (B,2 _DC B,2) |] %26
V:3
 [E,B,]>[E,B,] | [E,B,]>[E,B,] [E,B,]>[E,B,] | [E,B,]2 [B,,B,]>[C,G,] | [B,,B,]2 [B,,A,]2 | %4
w: ~ ~|~ ~ ~ ~|~ ~ ~|~ ~|
 !fermata![E,G,]2 [E,G,]>[E,B,] | [A,,A,]>[A,,E,] [A,,E,]>[A,,E,] | [A,,A,]2 [A,,A,]>[C,A,] | %7
w: ~ ~ ~|~ ~ ~ ~|~ ~ ~|
 [E,G,]2 [E,B,]2 | !fermata![B,,B,]2 [B,,B,]>[D,B,] | [E,B,]>[E,B,] [E,B,]>[E,B,] | %10
w: ~ ~|~ ~ ~|~ ~ ~ ~|
 [E,B,]2 [F,B,]>[G,B,] | [A,C]2 [G,B,]2 | A,2 [A,,A,]>[A,,A,] | [B,,G,]3 [B,,G,] | %14
w: ~ ~ ~|~ ~|~ ~ ~|~ ~|
 [B,,B,]2 [B,,A,]2 | [E,G,]4- | [E,G,]2 ||[M:4/4] z2 | z2 [E,E]>[E,E] [E,E]2 z2 | %19
w: ~ ~|~|||while the years|
 z2 [E,B,]>[E,B,] [E,B,]2 z2 | z2 [A,E]>[A,E] [A,E]2 z2 | z2 [E,E]>[E,E] [E,E]2 [E,B,]>[E,B,] | %22
w: roll- ing by|while the years|roll- ing by ~ ~|
 [E,B,]2 [F,B,]2 [G,B,]2 [E,E]2 | [A,E]6 [A,E]>[=A,E] | [B,E]3 [B,,G,] [B,,B,]2 [B,,A,]2 | %25
w: ~ ~ ~ ~|~ ~ ~|~ ~ ~ ~|
 G,2 B,A, G,2 |] %26
w: ~ roll- ing by|
V:4
 x2 | x4 | x4 | x4 | x4 | x4 | x4 | x4 | x4 | x4 | x4 | x4 | A,2 x2 | x4 | x4 | x4 | x2 || %17
[M:4/4] x2 | x8 | x8 | x8 | x8 | x8 | x8 | x8 | E,6 |] %26

